X:7
T:Here Come Three Dukes A riding
%%score 1 { 2 | 3 }
L:1/8
Q:1/4=140
M:6/8
I:linebreak $
K:G
V:1 treble nm="Violin"
V:2 treble nm="Piano"
V:3 bass 
V:1
D |: G2 G G2 B | d3 G2 G | A3 A2 A | F3 D2 D |$ G2 G G2 B | d3 G2 G/G/ | d2 c B2 A | GGG G2 z |$ 
w: Here|come three dukes a-|rid- ing, a-|rid- ing, a-|rid- ing, Here|come three dukes a-|rid- ing, With a|ran- som, tan- som|tid- dy- fi- o.|
w: Our|good will is to|mar- ry, to|mar- ry, to|mar- ry, Our|good will is to|mar- ry, With a|ran- som, tan- som|tid- dy- fi- o.|
w: You're|all too black and|dir- ty, *|dir- ty, *|dir- ty. You're|all too black and|dir- ty, With a|ran- som, tan- som|tid- dy- fi- o.|
w: You're|all as stiff as|po- kers, *|po- kers, *|po- kers. You're|all as stiff as|po- kers, With a|ran- som, tan- som|tid- dy- fi- o.|
G2 G G2 B | d3 G2 G | A3 A2 A | F3 D2 D |$ G2 G G2 B | d3 G2 G/G/ | d2 c B2 A | G3- G2 z :| 
w: What is your good|will, sirs, good|will, sirs, good|will, sirs, Oh,|what is your good|will, sirs, With a|ran- som, tan- som|ti?- *|
w: Mar- ry one of|us, sirs, of|us, sirs, of|us, sirs, Oh,|mar- ry one of|us, sirs, With a|ran- som, tan- som|ti. _|
w: We're good enough for|you, sir, for|you, sir, for|you sir. We're|good en- ough for|you, sir, with a|ran- som, tan- som|ti _|
w: We can bend e- nough for|you sir, as|you, sir, as|you sir. We can|||||
V:2
D |: [B,G]2 G [B,G]2 B | [Gd]3 [B,G]2 G | [CA]3 [CA]2 [CA] | [CF]3 [CD]2 D |$ [DG]2 G [B,G]2 B | 
[Gd]3 [B,G]2 G/G/ | [Fd]2 c [FB]2 A | [B,G][B,G][B,G] [B,G]2 z |$ [B,G]2 G [B,G]2 B | 
[Gd]3 [B,G]2 G | [CA]3 [CA]2 [CA] | [CF]3 [CD]2 D |$ [DG]2 G [B,G]2 B | [Gd]3 [B,G]2 G/G/ | 
[Fd]2 c [FB]2 A | [B,G]3- [B,G]2 z :| 
V:3
z |: G,,2 D, D,,2 D, | G,,2 D, D,,2 D, | F,,2 D, D,,2 D, | F,,2 D, D,,2 D, |$ G,,2 D, D,,2 D, | 
G,,2 D, D,,2 D, | F,,2 D, D,,2 D, | G,,2 D, D,,2 D, |$ G,,2 D, D,,2 D, | G,,2 D, D,,2 D, | 
F,,2 D, D,,2 D, | F,,2 D, D,,2 D, |$ G,,2 D, D,,2 D, | G,,2 D, D,,2 D, | F,,2 D, D,,2 D, | 
G,,2 D, D,,2 D, :| 






